public/img/logo.svg

<svg width="73" height="56" viewBox="0 0 73 56" fill="none" xmlns="http://www.w3.org/2000/svg">
<path d="M4.38157 3.65463V52.104H28.4737V47.9628H32.9557L32.8962 50.3276V56H0V0H32.9557V7.875H28.4737V3.65463H4.38157Z" fill="#19E0BE"/>
<path d="M16.745 25.8378C16.0527 25.8378 15.4217 25.7045 14.8521 25.4381C14.2913 25.1627 13.8049 24.7986 13.3931 24.3456C12.9812 23.8837 12.6657 23.3686 12.4467 22.8001C12.2276 22.2228 12.118 21.6277 12.118 21.0148C12.118 20.3931 12.232 19.798 12.4598 19.2296C12.6964 18.6522 13.0206 18.1415 13.4325 17.6974C13.8531 17.2444 14.3483 16.8892 14.9179 16.6316C15.4875 16.374 16.1097 16.2452 16.7844 16.2452C17.4767 16.2452 18.1033 16.3829 18.6641 16.6582C19.2337 16.9247 19.7201 17.2888 20.1232 17.7507C20.535 18.2126 20.8505 18.7322 21.0696 19.3095C21.2887 19.8779 21.3982 20.4597 21.3982 21.0548C21.3982 21.6766 21.2799 22.2761 21.0433 22.8534C20.8155 23.4219 20.4912 23.9326 20.0706 24.3856C19.6587 24.8297 19.168 25.1849 18.5984 25.4514C18.0375 25.709 17.4197 25.8378 16.745 25.8378ZM14.3132 21.0415C14.3132 21.53 14.4052 21.9919 14.5892 22.4271C14.7733 22.8534 15.0493 23.2043 15.4174 23.4796C15.7854 23.7549 16.2323 23.8926 16.7581 23.8926C17.3014 23.8926 17.7527 23.7505 18.112 23.4663C18.4801 23.1821 18.7517 22.8223 18.927 22.3871C19.111 21.943 19.203 21.4856 19.203 21.0148C19.203 20.5263 19.1067 20.0689 18.9139 19.6426C18.7298 19.2074 18.4538 18.8565 18.0857 18.5901C17.7265 18.3236 17.2839 18.1904 16.7581 18.1904C16.2148 18.1904 15.7591 18.3325 15.3911 18.6167C15.0318 18.892 14.7601 19.2473 14.5761 19.6825C14.4008 20.1178 14.3132 20.5707 14.3132 21.0415Z" fill="#212B31"/>
<path d="M22.6833 25.7578V16.2985H24.8259V19.9623H25.562L28.1647 16.2985H30.557L27.2182 20.8683L30.8462 25.7578H28.2304L25.4963 21.9475H24.8259V25.7578H22.6833Z" fill="#212B31"/>
<path d="M39.9947 16.2985V25.7578H37.839V21.8808H34.119V25.7578H31.9633V16.2985H34.119V19.9623H37.839V16.2985H39.9947Z" fill="#212B31"/>
<path d="M44.1362 16.2985H46.4628L49.6701 25.7578H47.4618L46.7389 23.6395H43.8339L43.1241 25.7578H40.9158L44.1362 16.2985ZM46.384 22.134L45.293 18.4968L44.1757 22.134H46.384Z" fill="#212B31"/>
<path d="M12.6964 40.8572V31.3979H20.4649V40.8572H18.3092V33.3164H14.8521V40.8572H12.6964Z" fill="#212B31"/>
<path d="M22.2973 40.8572V31.3979H26.2801C26.7271 31.3979 27.1345 31.4912 27.5026 31.6777C27.8794 31.8553 28.2037 32.0996 28.4753 32.4105C28.747 32.7124 28.9573 33.0544 29.1063 33.4363C29.2552 33.8183 29.3297 34.2046 29.3297 34.5954C29.3297 35.1461 29.2027 35.6657 28.9485 36.1542C28.7032 36.6427 28.357 37.0424 27.9101 37.3533C27.4632 37.6553 26.9418 37.8063 26.3459 37.8063H24.453V40.8572H22.2973ZM24.453 35.9011H26.2144C26.4685 35.9011 26.6876 35.7901 26.8717 35.568C27.0557 35.346 27.1477 35.0218 27.1477 34.5954C27.1477 34.1602 27.0382 33.8405 26.8191 33.6362C26.6088 33.423 26.3809 33.3164 26.1355 33.3164H24.453V35.9011Z" fill="#212B31"/>
<path d="M37.0463 38.9387V40.8572H30.4871V31.3979H36.928V33.3164H32.6428V35.155H36.3233V36.927H32.6428V38.9387H37.0463Z" fill="#212B31"/>
<path d="M45.717 40.8572V35.2216L43.7058 39.3251H42.5228L40.5117 35.2216V40.8572H38.3559V31.3979H40.6957L43.1143 36.3407L45.5461 31.3979H47.8727V40.8572H45.717Z" fill="#212B31"/>
<path d="M49.7044 40.8572V31.3979H51.8602V34.662H53.5953C54.6293 34.662 55.4355 34.9374 56.0139 35.4881C56.601 36.0388 56.8946 36.7893 56.8946 37.7397C56.8946 38.6812 56.6142 39.4361 56.0533 40.0046C55.4925 40.573 54.7126 40.8572 53.7136 40.8572H49.7044ZM51.8602 39.072H53.3981C53.845 39.072 54.1736 38.9476 54.384 38.6989C54.5943 38.4502 54.6994 38.1305 54.6994 37.7397C54.6994 37.4021 54.5943 37.1046 54.384 36.847C54.1824 36.5806 53.8538 36.4473 53.3981 36.4473H51.8602V39.072Z" fill="#212B31"/>
<path d="M64.6579 38.9387V40.8572H58.0987V31.3979H64.5396V33.3164H60.2544V35.155H63.9349V36.927H60.2544V38.9387H64.6579Z" fill="#212B31"/>
<path d="M65.9675 40.8572V31.3979H69.9504C70.3973 31.3979 70.8048 31.4912 71.1728 31.6777C71.5497 31.8553 71.8739 32.0996 72.1456 32.4105C72.4172 32.7124 72.6275 33.0544 72.7765 33.4363C72.9255 33.8183 73 34.2046 73 34.5954C73 35.1461 72.8729 35.6657 72.6188 36.1542C72.3734 36.6427 72.0273 37.0424 71.5803 37.3533C71.1334 37.6553 70.612 37.8063 70.0161 37.8063H68.1233V40.8572H65.9675ZM68.1233 35.9011H69.8847C70.1388 35.9011 70.3579 35.7901 70.5419 35.568C70.7259 35.346 70.8179 35.0218 70.8179 34.5954C70.8179 34.1602 70.7084 33.8405 70.4893 33.6362C70.279 33.423 70.0512 33.3164 69.8058 33.3164H68.1233V35.9011Z" fill="#212B31"/>
</svg>

<svg width="73" height="56" fill="none" xmlns="http://www.w3.org/2000/svg"><path d="M4.382 3.655v48.449h24.092v-4.141h4.482l-.06 2.365V56H0V0h32.956v7.875h-4.482v-4.22H4.382Z" fill="#19E0BE"/><path d="M16.745 25.838a4.413 4.413 0 0 1-1.893-.4 4.828 4.828 0 0 1-1.459-1.092 5.013 5.013 0 0 1-.946-1.546 4.991 4.991 0 0 1-.329-1.785c0-.622.114-1.217.342-1.785.236-.578.56-1.088.972-1.533.421-.453.916-.808 1.486-1.065a4.477 4.477 0 0 1 1.866-.387c.693 0 1.32.138 1.88.413a4.37 4.37 0 0 1 1.46 1.093c.411.462.727.981.946 1.558.219.569.328 1.15.328 1.746 0 .622-.118 1.221-.355 1.798a4.929 4.929 0 0 1-.972 1.533c-.412.444-.903.799-1.473 1.065a4.388 4.388 0 0 1-1.853.387Zm-2.432-4.797c0 .489.092.95.276 1.386.184.426.46.777.828 1.053.368.275.815.413 1.341.413.543 0 .995-.143 1.354-.427.368-.284.64-.644.815-1.079.184-.444.276-.901.276-1.372a3.29 3.29 0 0 0-.29-1.372 2.448 2.448 0 0 0-.827-1.053c-.36-.266-.802-.4-1.328-.4-.543 0-.999.142-1.367.427-.36.275-.63.63-.815 1.066a3.604 3.604 0 0 0-.263 1.358ZM22.683 25.758v-9.46h2.143v3.664h.736l2.603-3.663h2.392l-3.339 4.57 3.628 4.889H28.23l-2.734-3.81h-.67v3.81h-2.143ZM39.995 16.299v9.459h-2.156V21.88h-3.72v3.877h-2.156v-9.46h2.156v3.664h3.72V16.3h2.156ZM44.136 16.299h2.327l3.207 9.459h-2.208l-.723-2.118h-2.905l-.71 2.118h-2.208l3.22-9.46Zm2.248 5.835-1.091-3.637-1.117 3.637h2.208ZM12.696 40.857v-9.46h7.769v9.46h-2.156v-7.54h-3.457v7.54h-2.156ZM22.297 40.857v-9.46h3.983c.447 0 .854.094 1.223.28.376.178.7.423.972.733a3.33 3.33 0 0 1 .855 2.185c0 .551-.127 1.07-.381 1.56a3.172 3.172 0 0 1-1.039 1.198c-.447.302-.968.453-1.564.453h-1.893v3.051h-2.156Zm2.156-4.956h1.761c.255 0 .474-.11.658-.333.184-.222.276-.546.276-.973 0-.435-.11-.755-.329-.959-.21-.213-.438-.32-.683-.32h-1.683v2.585ZM37.046 38.939v1.918h-6.559v-9.46h6.441v1.92h-4.285v1.838h3.68v1.772h-3.68v2.012h4.403ZM45.717 40.857v-5.635l-2.011 4.103h-1.183l-2.011-4.103v5.635h-2.156v-9.46h2.34l2.418 4.944 2.432-4.943h2.327v9.46h-2.156ZM49.704 40.857v-9.46h2.156v3.265h1.735c1.034 0 1.84.275 2.419.826.587.55.88 1.301.88 2.252 0 .941-.28 1.696-.84 2.265-.562.568-1.341.852-2.34.852h-4.01Zm2.156-1.785h1.538c.447 0 .776-.124.986-.373.21-.249.315-.569.315-.96a1.37 1.37 0 0 0-.315-.892c-.202-.266-.53-.4-.986-.4H51.86v2.625ZM64.658 38.939v1.918h-6.56v-9.46h6.442v1.92h-4.286v1.838h3.68v1.772h-3.68v2.012h4.404ZM65.968 40.857v-9.46h3.982c.447 0 .855.094 1.223.28.377.178.7.423.973.733A3.33 3.33 0 0 1 73 34.596c0 .551-.127 1.07-.381 1.56a3.172 3.172 0 0 1-1.039 1.198c-.447.302-.968.453-1.564.453h-1.893v3.051h-2.156Zm2.155-4.956h1.762c.254 0 .473-.11.657-.333.184-.222.276-.546.276-.973 0-.435-.11-.755-.329-.959-.21-.213-.438-.32-.683-.32h-1.683v2.585Z" fill="#212B31"/></svg>
